icons/DownArrow.svg

<svg width="24" height="24" viewBox="0 0 24 24" fill="none" xmlns="http://www.w3.org/2000/svg">
<path fill-rule="evenodd" clip-rule="evenodd" d="M15.943 12.3C15.8268 12.184 15.6692 12.1188 15.505 12.1188C15.3408 12.1188 15.1832 12.184 15.067 12.3L13.239 14.128V5.62C13.239 5.45574 13.1738 5.29819 13.0578 5.18195C12.9417 5.0657 12.7843 5.00026 12.62 5H11.38C11.2156 5 11.0579 5.06532 10.9416 5.18159C10.8253 5.29787 10.76 5.45557 10.76 5.62V14.132L8.933 12.3C8.81676 12.184 8.65924 12.1188 8.495 12.1188C8.33077 12.1188 8.17324 12.184 8.057 12.3L7.181 13.176C7.06498 13.2922 6.99981 13.4498 6.99981 13.614C6.99981 13.7782 7.06498 13.9358 7.181 14.052L10.681 17.557L11.557 18.433C11.6732 18.549 11.8308 18.6142 11.995 18.6142C12.1592 18.6142 12.3168 18.549 12.433 18.433L13.31 17.557L16.81 14.052C16.926 13.9358 16.9912 13.7782 16.9912 13.614C16.9912 13.4498 16.926 13.2922 16.81 13.176L15.943 12.3Z" fill="black"/>
</svg>

<svg xmlns="http://www.w3.org/2000/svg" viewBox="0 0 24 24">
  <path d="M15.943 12.3a.62.62 0 00-.876 0l-1.828 1.828V5.62A.62.62 0 0012.62 5h-1.24a.62.62 0 00-.62.62v8.512L8.933 12.3a.62.62 0 00-.876 0l-.876.876a.62.62 0 000 .876l3.5 3.505.876.876a.62.62 0 00.876 0l.877-.876 3.5-3.505a.62.62 0 000-.876l-.867-.876z"/>
</svg>
